public/images/dev41.svg

<svg width="100" height="100" viewBox="0 0 100 100" fill="none" xmlns="http://www.w3.org/2000/svg">
<path d="M0 37H100V63H0V37Z" fill="#D40000"/>
<path d="M4.27715 40.9624H18.7364V42.8263L7.0978 56.9794H19.0217V59.0375H3.99182V57.1736L15.6304 43.0205H4.27715V40.9624ZM28.8043 43.3712L25.4212 52.375H32.1902L28.8043 43.3712ZM27.3967 40.9624H30.2174L37.2282 59.0375H34.6386L32.9646 54.4007H24.6684L22.9918 59.0375H20.3641L27.3967 40.9624ZM42.3913 50.4059V57.028H46.3858C47.7264 57.028 48.7228 56.7582 49.375 56.2188C50.0271 55.6793 50.3478 54.8476 50.3369 53.7237C50.3369 52.5944 50.0145 51.7609 49.3695 51.2232C48.7246 50.6856 47.7282 50.4158 46.3804 50.414L42.3913 50.4059ZM42.3913 42.972V48.4207H46.0788C47.2962 48.4207 48.202 48.1968 48.7962 47.749C49.3904 47.3012 49.6884 46.6179 49.6902 45.699C49.6902 44.7873 49.3913 44.1049 48.7962 43.6544C48.2011 43.2039 47.2935 42.9747 46.0788 42.9747H42.3913V42.972ZM39.9021 40.9624H46.2636C48.1621 40.9624 49.625 41.3499 50.6521 42.125C51.6793 42.9 52.192 44.0024 52.1902 45.432C52.1902 46.5361 51.9275 47.4163 51.4021 48.0727C50.8156 48.76 49.9862 49.1983 49.0842 49.2973C50.196 49.4908 51.2051 50.0631 51.9375 50.9157C52.6342 51.786 52.9955 52.8744 52.9565 53.9853C52.9565 55.6038 52.3976 56.8509 51.2799 57.7266C50.1621 58.6023 48.5742 59.0393 46.5163 59.0375H39.9076L39.9021 40.9624ZM59.4429 50.4032V57.028H63.4402C64.7808 57.028 65.7771 56.7582 66.4293 56.2188C67.0815 55.6793 67.4021 54.8476 67.3913 53.7237C67.3913 52.5944 67.0688 51.7609 66.4239 51.2232C65.779 50.6856 64.7826 50.4158 63.4348 50.414L59.4429 50.4032ZM59.4429 42.9693V48.418H63.1304C64.3478 48.418 65.2536 48.1941 65.8478 47.7463C66.442 47.2985 66.74 46.6152 66.7418 45.6963C66.7418 44.7846 66.4456 44.1022 65.8478 43.6517C65.25 43.2012 64.3451 42.972 63.1304 42.972H59.4456L59.4429 42.9693ZM56.9538 40.9597H63.3152C65.2137 40.9597 66.6766 41.3472 67.7038 42.1223C68.7309 42.8973 69.2445 43.9997 69.2445 45.4293C69.2445 46.5334 68.9819 47.4136 68.4565 48.07C67.87 48.7574 67.0405 49.1956 66.1386 49.2946C67.2504 49.4881 68.2594 50.0604 68.9918 50.913C69.6886 51.7833 70.0499 52.8717 70.0108 53.9826C70.0108 55.6011 69.452 56.8482 68.3342 57.7239C67.2165 58.5997 65.6277 59.0375 63.5679 59.0375H56.9565L56.9538 40.9597ZM81.2146 40.9597H83.9674L88.2962 47.4496L92.663 40.9624H95.3098L89.6032 49.4295L96.0108 59.0375H93.2717L88.2309 51.4849L83.1386 59.0375H80.4918L86.913 49.4969L81.2146 40.9597ZM74.0027 40.9597H76.4918V59.0321H74.0027V40.9597Z" fill="white"/>
</svg>

<svg xmlns="http://www.w3.org/2000/svg" width="100" height="100" fill="none"><path fill="#D40000" d="M0 37h100v26H0z"/><path fill="#fff" d="M4.277 40.962h14.46v1.864L7.096 56.98h11.925v2.059H3.992v-1.864L15.63 43.02H4.277zm24.527 2.41-3.383 9.003h6.77zm-1.407-2.41h2.82l7.011 18.075h-2.59l-1.673-4.636h-8.297l-1.676 4.636h-2.628zm14.994 9.444v6.622h3.995q2.01 0 2.989-.81.978-.808.962-2.494 0-1.695-.968-2.5-.966-.807-2.989-.81zm0-7.434v5.449h3.688q1.826 0 2.717-.672t.894-2.05q0-1.368-.894-2.045c-.595-.45-1.502-.68-2.717-.68H42.39zm-2.489-2.01h6.362q2.847 0 4.388 1.163 1.54 1.162 1.538 3.307 0 1.656-.788 2.64a3.56 3.56 0 0 1-2.318 1.225 4.86 4.86 0 0 1 2.853 1.619 4.65 4.65 0 0 1 1.02 3.07q0 2.427-1.677 3.74t-4.764 1.312h-6.608zm19.54 9.441v6.625h3.998q2.01 0 2.99-.81.977-.808.961-2.494 0-1.695-.967-2.5-.967-.807-2.99-.81zm0-7.434v5.449h3.688q1.827 0 2.718-.672.891-.671.894-2.05.001-1.368-.894-2.044c-.598-.45-1.503-.68-2.718-.68h-3.684zm-2.488-2.01h6.361q2.848 0 4.389 1.163 1.54 1.163 1.54 3.307 0 1.656-.787 2.641a3.56 3.56 0 0 1-2.318 1.225 4.86 4.86 0 0 1 2.853 1.618 4.65 4.65 0 0 1 1.019 3.07q0 2.427-1.677 3.74-1.677 1.315-4.766 1.315h-6.611zm24.26 0h2.753l4.33 6.49 4.366-6.487h2.647l-5.707 8.467 6.408 9.609h-2.74l-5.04-7.553-5.092 7.553h-2.647l6.421-9.541zm-7.211 0h2.489v18.073h-2.49z"/></svg>
